X: 21645
T: Killeigh, The
R: hornpipe
M: 4/4
K: Gmajor
d|GGB dBG|gaf gdB|Gz d edB|edB AFD|
GGB dBg|gaf gz A|DFA dcA|GAF Gz D|
GGB dBg|gaf gdB|gz d edB|edB AFD|
GGB dBg|gaf gz A|DFA dcA|GAF Gz D||
GBd ~g3|dgb gdB|ecA BAG|FAF Dz D|
GBd ~g3|dz b gdB|DFA dcA|GAF Gz D|
GBd ~g3|dgb gdB|ecA BAG|FAF DAD|
GBd gz g|dgb gdB|DFA dcA|GAF G3||

